X:504
T:Wild John
C:
N:Transcribed by Tristan Scroggins Based on Megan Lynch's playing
R:bluegrass
L:1/8
Q:1/4=200
M:4/4
K:C
cd cG cd ec | dc AG E^F GA | Bd BG Bd eB | dB AG EG AG | cd cG cd ec | dc AG E^F GA | 
BA GB AG BG | [c2E2] (3[dE]cB [c2E2] AB | cd cG cd ec | dc AG EG AG | Bd BG DB, _B,=B, | 
G,B, DG BG AG | cd cG cd ec | dc AG E^F GA | BA GB AG BA | [c2E2] (3[dE]cB [c2E2] AB | 
|: c[e^d] [e2e2] [e4e4] | [ee]^d cA =dc AG | EG ce dc Ac | Bd gb ag ed | c[e^d] [ee]g [e4e4] | 
[ee]^d cA =dc AG | EG Bc dc BG |1 [c2E2] (3[dE]cB [c2E2] AB :|2 [c2E2] (3[dE]cB [c2E2] GF | 
EC z2 CA cB | AF z2 F2 dc | BG Bc dc BG | ce ag ec AG | EC z2 C2 cB | AF zG FA dc | 
BG Bd gd BG | [c2E2] (3[dE]cB [c2E2] G,B, | CB, CD EC DE | FE FG AG FD | G^F GA BG AB | 
c2 (3cd^d e2 G,B, | CB, CD EC DE | FE FG AG FD | G^F GA GE DB, | C2 (3DCB, C4 | 


